images/icons/Group 3.svg

<svg width="270" height="120" viewBox="0 0 270 120" fill="none" xmlns="http://www.w3.org/2000/svg">
<rect width="270" height="120" rx="4" fill="#F5F4FA"/>
<g clip-path="url(#clip0_1_352)">
<path d="M132.65 57.7351H134.982V68.2296H132.65V57.7351Z" fill="#2196F3"/>
<path d="M141.978 62.3993H144.31V68.2296H141.978V62.3993Z" fill="#2196F3"/>
<path d="M123.321 65.8975H125.653V68.2296H123.321V65.8975Z" fill="#2196F3"/>
<path d="M116.325 64.7314H118.657V68.2295H116.325V64.7314Z" fill="#2196F3"/>
<path d="M103.498 86.8865H159.469C161.401 86.8865 162.967 85.3202 162.967 83.3883V78.7241C162.967 76.7923 161.401 75.2259 159.469 75.2259H158.303V46.1469L164.926 39.8725C166.463 40.6303 168.324 40.1702 169.33 38.7816C170.337 37.3935 170.196 35.4821 168.997 34.2568C167.798 33.0316 165.89 32.8488 164.48 33.8241C163.07 34.8 162.569 36.6499 163.293 38.2037L158.303 42.9345V40.2443C158.303 38.3124 156.736 36.7461 154.805 36.7461H108.162C106.231 36.7461 104.664 38.3124 104.664 40.2443V75.2259H103.498C101.566 75.2259 100 76.7923 100 78.7241V83.3883C100 85.3202 101.566 86.8865 103.498 86.8865ZM166.465 35.58C167.109 35.58 167.631 36.1021 167.631 36.7461C167.631 37.39 167.109 37.9121 166.465 37.9121C165.821 37.9121 165.299 37.39 165.299 36.7461C165.299 36.1021 165.821 35.58 166.465 35.58ZM106.996 40.2443C106.996 39.6003 107.518 39.0782 108.162 39.0782H154.805C155.449 39.0782 155.971 39.6003 155.971 40.2443V45.1414L153.639 47.3573V42.5764C153.639 41.9324 153.116 41.4103 152.473 41.4103H110.495C109.851 41.4103 109.328 41.9324 109.328 42.5764V71.7278C109.328 72.3717 109.851 72.8938 110.495 72.8938H152.473C153.116 72.8938 153.639 72.3717 153.639 71.7278V50.5651L155.971 48.3554V75.2259H106.996V40.2443ZM117.491 55.403C115.913 55.3984 114.528 56.4495 114.108 57.9703C113.689 59.491 114.338 61.104 115.695 61.9091C117.051 62.7142 118.779 62.5121 119.913 61.4149L123.966 63.4487C124.437 63.6844 125.008 63.5739 125.358 63.1805L133.974 53.4871L142.444 59.8338C142.899 60.1743 143.533 60.1378 143.945 59.7478L151.306 52.7748V70.5617H111.661V43.7424H151.306V49.5619L143.056 57.3747L134.515 50.9716C134.03 50.6084 133.348 50.6767 132.944 51.1294L124.21 60.9571L120.945 59.3242C120.969 59.1841 120.983 59.0429 120.989 58.9012C120.989 56.9693 119.423 55.403 117.491 55.403ZM118.657 58.9012C118.657 59.5451 118.135 60.0672 117.491 60.0672C116.847 60.0672 116.325 59.5451 116.325 58.9012C116.325 58.2572 116.847 57.7351 117.491 57.7351C118.135 57.7351 118.657 58.2572 118.657 58.9012ZM125.653 77.5581H137.314V78.7241C137.314 79.3681 136.792 79.8902 136.148 79.8902H126.819C126.175 79.8902 125.653 79.3681 125.653 78.7241V77.5581ZM102.332 78.7241C102.332 78.0802 102.854 77.5581 103.498 77.5581H123.321V78.7241C123.321 80.656 124.887 82.2223 126.819 82.2223H136.148C138.08 82.2223 139.646 80.656 139.646 78.7241V77.5581H159.469C160.113 77.5581 160.635 78.0802 160.635 78.7241V83.3883C160.635 84.0323 160.113 84.5544 159.469 84.5544H103.498C102.854 84.5544 102.332 84.0323 102.332 83.3883V78.7241Z" fill="#212121"/>
</g>
<defs>
<clipPath id="clip0_1_352">
<rect width="70" height="70" fill="white" transform="translate(100 25)"/>
</clipPath>
</defs>
</svg>

<svg width="270" height="120" fill="none" xmlns="http://www.w3.org/2000/svg"><rect width="270" height="120" rx="4" fill="#F5F4FA"/><g clip-path="url(#a)"><path d="M132.65 57.735h2.332V68.23h-2.332V57.735ZM141.978 62.4h2.332v5.83h-2.332V62.4ZM123.321 65.897h2.332v2.333h-2.332v-2.333ZM116.325 64.731h2.332v3.499h-2.332V64.73Z" fill="#2196F3"/><path d="M103.498 86.886h55.971a3.498 3.498 0 0 0 3.498-3.498v-4.664a3.498 3.498 0 0 0-3.498-3.498h-1.166v-29.08l6.623-6.273a3.518 3.518 0 1 0-1.633-1.67l-4.99 4.731v-2.69a3.499 3.499 0 0 0-3.498-3.498h-46.643a3.499 3.499 0 0 0-3.498 3.498v34.982h-1.166A3.498 3.498 0 0 0 100 78.724v4.664a3.498 3.498 0 0 0 3.498 3.498Zm62.967-51.306a1.166 1.166 0 1 1 0 2.332 1.166 1.166 0 0 1 0-2.332Zm-59.469 4.664c0-.644.522-1.166 1.166-1.166h46.643c.644 0 1.166.522 1.166 1.166v4.897l-2.332 2.216v-4.78c0-.645-.523-1.167-1.166-1.167h-41.978c-.644 0-1.167.522-1.167 1.166v29.152c0 .644.523 1.166 1.167 1.166h41.978c.643 0 1.166-.522 1.166-1.166V50.565l2.332-2.21v26.87h-48.975v-34.98Zm10.495 15.159a3.498 3.498 0 1 0 2.422 6.012l4.053 2.034a1.166 1.166 0 0 0 1.392-.268l8.616-9.694 8.47 6.347c.455.34 1.089.304 1.501-.086l7.361-6.973v17.787h-39.645v-26.82h39.645v5.82l-8.25 7.813-8.541-6.403a1.167 1.167 0 0 0-1.571.157l-8.734 9.828-3.265-1.633a3.34 3.34 0 0 0 .044-.423 3.498 3.498 0 0 0-3.498-3.498Zm1.166 3.498a1.166 1.166 0 1 1-2.332 0 1.166 1.166 0 0 1 2.332 0Zm6.996 18.657h11.661v1.166c0 .644-.522 1.166-1.166 1.166h-9.329a1.166 1.166 0 0 1-1.166-1.166v-1.166Zm-23.321 1.166c0-.644.522-1.166 1.166-1.166h19.823v1.166a3.498 3.498 0 0 0 3.498 3.498h9.329a3.498 3.498 0 0 0 3.498-3.498v-1.166h19.823c.644 0 1.166.522 1.166 1.166v4.664c0 .644-.522 1.166-1.166 1.166h-55.971a1.166 1.166 0 0 1-1.166-1.166v-4.664Z" fill="#212121"/></g><defs><clipPath id="a"><path fill="#fff" transform="translate(100 25)" d="M0 0h70v70H0z"/></clipPath></defs></svg>
